X:140
T:Paddy Ryan's Dream (r)
B:NFID.077b ("untitled reel")
140paddy_r
S:JD
N:John Doherty's version of this classic reel.
L:1/8
M:C
R:reel
Q:360
K:Am
ed|cA~A2 cABG|EGDC B,CDB,|CA,B,G, A,B,^CD|EAGB Aced|
cAGA cABG|EGDC B,CDB,|CA,B,G, A,B,^CD|EAGB A2:|
^fg|a^gae ceA^f|g^fgd BG^FB|Agae cBAc|BGED CEAg|
agae ceA^f|g^fgd BGBd|cBcd edcB|Aagb ae:|

%%%

